svg/black/vrsc.svg

<svg height="32" viewBox="0 0 32 32" width="32" xmlns="http://www.w3.org/2000/svg"><g fill="none"><circle cx="16" cy="16" fill="#000" r="16"/><g fill="#fff" transform="translate(4 4)"><path d="m23.897561 10.5268293c-.2829269-2.3170732-1.2634147-4.54146345-2.7804878-6.31219515-1.0585366-1.25365854-2.3902439-2.27317074-3.8634147-2.99024391-1.9756097-.9707317-4.2195122-1.3707317-6.4097561-1.15609756-2.56585362.24390244-5.0439024 1.34146342-6.94146338 3.09268293-1.11219512 1.0097561-2.02439024 2.24390244-2.68292682 3.59512195-1.06829269 2.18536585-1.44390244 4.70243904-1.06341464 7.10243904.35609756 2.297561 1.4 4.4829268 2.97073171 6.2 2.24390244 2.502439 5.5902439 3.9658536 8.95121953 3.9268293 2.604878-.0097561 5.1951219-.9024391 7.2536585-2.5024391 1.4585366-1.1219512 2.6439025-2.5853658 3.4487805-4.2390244 1.0097561-2.0634146 1.4048781-4.4292683 1.1170732-6.7170731zm-3.6536586-2.59024393c-.0536585.07804878-.102439.15609756-.1414634.24390243-1.7609756 3.7073171-3.5170731 7.4097561-5.2780488 11.1170732-.2536585.5317073-.507317 1.0682927-.7951219 1.5804878-1.3073171-.0097561-2.6146342-.0048781-3.9219512-.0048781-2.08292686-4.2878048-4.15609759-8.5804878-6.24390247-12.8634146-.04390243-.08292683-.08780487-.17073171-.13170731-.25365854.03414634-.02439024.11219512-.06829268.14634146-.08780488.81463415-1.01463414 1.63902439-2.02439024 2.45853659-3.03902439.10243902-.13170731.21951219-.25853658.33658536-.37560975.05365854.08780487.10731707.17560975.15121951.27317073.45365854 1.04390244.91707317 2.09268293 1.38048781 3.13658536.46829268 0 .93658536.0097561 1.4097561-.01951219.1707317.16097561.26341463.37560976.33170731.59512195.08780484-.22439024.12195124-.46341463.13170734-.70731707.1512195-1.4.1756097-2.81463415.3268292-4.21463415.0243903-.30243902.4780488-.30243902.5170732-.0097561.1463415 1.32682927.1804878 2.66829269.2878049 4 .0195122.4.0341463.8.1219512 1.19024391.2-.26341464.1365854-.72682927.502439-.83414635.3024391-.10243902.6439025.06829269.9317074-.11219512.3951219-.23902439.5414634-.70731707.7902439-1.07317073.1414634-.23902439.4682926-.4097561.7317073-.27317073.2634146.10243902.3756097.38536585.5121951.6097561.1560976.25853658.297561.54634146.5512195.71707317.2243903.09756097.4780488.11219512.7219512.10731707.492683-1.11219512 1-2.21951219 1.5024391-3.32682927.8780487 1.10243903 1.707317 2.23902439 2.5853658 3.34146342.1317073.05853658.1560976.15609756.0829268.28292683z"/><path d="m14.0731707 6.54146341c-.3951219.4292683-.5365853 1.12195122-1.1268292 1.34146342-.3024391.14634146-.6682927.02439024-.9707317.13658537-.2634147.51707317-.2292683 1.12682926-.4292683 1.66341463-.1365854.25365854-.5463415.12682927-.5463415-.15121951-.1707317-1.45853659-.1853659-2.93170732-.3414634-4.39024391-.1658537 1.31219513-.2097561 2.63902439-.4146342 3.94146342 0 .33658537-.53170728.3902439-.58048777.05365854-.10243902-.38048781-.12682926-.78048781-.31707317-1.13658537-.33170731-.00487805-.66341463-.00487805-.9902439 0 1.24390244 2.8195122 2.47804874 5.6390244 3.72195124 8.4585366 1.2585366-2.8195122 2.5609756-5.6195122 3.8097561-8.44390245l.004878-.0097561c-.3268292-.03902439-.6829268-.07317073-.9560975-.27804878-.3804878-.31707317-.5268293-.82439025-.8634147-1.18536586z"/></g></g></svg>

<?xml version="1.0" encoding="UTF-8"?>
<svg width="32px" height="32px" viewBox="0 0 32 32" version="1.1" xmlns="http://www.w3.org/2000/svg" xmlns:xlink="http://www.w3.org/1999/xlink">
    <!-- Generator: Sketch 50 (54983) - http://www.bohemiancoding.com/sketch -->
    <title>black/vrsc</title>
    <desc>Created with Sketch.</desc>
    <defs></defs>
    <g id="black/vrsc" stroke="none" stroke-width="1" fill="none" fill-rule="evenodd">
        <circle id="Combined-Shape" fill="#000000" fill-rule="nonzero" cx="16" cy="16" r="16"></circle>
        <g id="VerusCoin-(VRSC)" transform="translate(4.000000, 4.000000)" fill="#FFFFFF" fill-rule="nonzero">
            <path d="M23.897561,10.5268293 C23.6146341,8.2097561 22.6341463,5.98536585 21.1170732,4.21463415 C20.0585366,2.96097561 18.7268293,1.94146341 17.2536585,1.22439024 C15.2780488,0.253658537 13.0341463,-0.146341463 10.8439024,0.0682926829 C8.27804878,0.312195122 5.8,1.4097561 3.90243902,3.16097561 C2.7902439,4.17073171 1.87804878,5.40487805 1.2195122,6.75609756 C0.151219512,8.94146341 -0.224390244,11.4585366 0.156097561,13.8585366 C0.512195122,16.1560976 1.55609756,18.3414634 3.12682927,20.0585366 C5.37073171,22.5609756 8.71707317,24.0243902 12.0780488,23.9853659 C14.6829268,23.9756098 17.2731707,23.0829268 19.3317073,21.4829268 C20.7902439,20.3609756 21.9756098,18.897561 22.7804878,17.2439024 C23.7902439,15.1804878 24.1853659,12.8146341 23.897561,10.5268293 Z M20.2439024,7.93658537 C20.1902439,8.01463415 20.1414634,8.09268293 20.102439,8.1804878 C18.3414634,11.8878049 16.5853659,15.5902439 14.8243902,19.297561 C14.5707317,19.8292683 14.3170732,20.3658537 14.0292683,20.8780488 C12.7219512,20.8682927 11.4146341,20.8731707 10.1073171,20.8731707 C8.02439024,16.5853659 5.95121951,12.2926829 3.86341463,8.0097561 C3.8195122,7.92682927 3.77560976,7.83902439 3.73170732,7.75609756 C3.76585366,7.73170732 3.84390244,7.68780488 3.87804878,7.66829268 C4.69268293,6.65365854 5.51707317,5.64390244 6.33658537,4.62926829 C6.43902439,4.49756098 6.55609756,4.37073171 6.67317073,4.25365854 C6.72682927,4.34146341 6.7804878,4.42926829 6.82439024,4.52682927 C7.27804878,5.57073171 7.74146341,6.6195122 8.20487805,7.66341463 C8.67317073,7.66341463 9.14146341,7.67317073 9.61463415,7.64390244 C9.78536585,7.80487805 9.87804878,8.0195122 9.94634146,8.23902439 C10.0341463,8.01463415 10.0682927,7.77560976 10.0780488,7.53170732 C10.2292683,6.13170732 10.2536585,4.71707317 10.404878,3.31707317 C10.4292683,3.01463415 10.8829268,3.01463415 10.9219512,3.30731707 C11.0682927,4.63414634 11.102439,5.97560976 11.2097561,7.30731707 C11.2292683,7.70731707 11.2439024,8.10731707 11.3317073,8.49756098 C11.5317073,8.23414634 11.4682927,7.77073171 11.8341463,7.66341463 C12.1365854,7.56097561 12.4780488,7.73170732 12.7658537,7.55121951 C13.1609756,7.31219512 13.3073171,6.84390244 13.5560976,6.47804878 C13.697561,6.23902439 14.0243902,6.06829268 14.2878049,6.20487805 C14.5512195,6.30731707 14.6634146,6.5902439 14.8,6.81463415 C14.9560976,7.07317073 15.097561,7.36097561 15.3512195,7.53170732 C15.5756098,7.62926829 15.8292683,7.64390244 16.0731707,7.63902439 C16.5658537,6.52682927 17.0731707,5.4195122 17.5756098,4.31219512 C18.4536585,5.41463415 19.2829268,6.55121951 20.1609756,7.65365854 C20.2926829,7.71219512 20.3170732,7.8097561 20.2439024,7.93658537 Z" id="Shape"></path>
            <path d="M14.0731707,6.54146341 C13.6780488,6.97073171 13.5365854,7.66341463 12.9463415,7.88292683 C12.6439024,8.02926829 12.2780488,7.90731707 11.9756098,8.0195122 C11.7121951,8.53658537 11.7463415,9.14634146 11.5463415,9.68292683 C11.4097561,9.93658537 11,9.8097561 11,9.53170732 C10.8292683,8.07317073 10.8146341,6.6 10.6585366,5.14146341 C10.4926829,6.45365854 10.4487805,7.7804878 10.2439024,9.08292683 C10.2439024,9.4195122 9.71219512,9.47317073 9.66341463,9.13658537 C9.56097561,8.75609756 9.53658537,8.35609756 9.34634146,8 C9.01463415,7.99512195 8.68292683,7.99512195 8.35609756,8 C9.6,10.8195122 10.8341463,13.6390244 12.0780488,16.4585366 C13.3365854,13.6390244 14.6390244,10.8390244 15.8878049,8.01463415 L15.8926829,8.00487805 C15.5658537,7.96585366 15.2097561,7.93170732 14.9365854,7.72682927 C14.5560976,7.4097561 14.4097561,6.90243902 14.0731707,6.54146341 Z" id="Shape"></path>
        </g>
    </g>
</svg>
